packages/smooth_app/assets/preferences/main.svg

<svg width="174" height="162" viewBox="0 0 174 162" fill="none" xmlns="http://www.w3.org/2000/svg">
    <path d="M173.443 53.2379L160.933 51.3122L160.724 50.432C159.907 46.9647 158.448 43.4633 156.381 40.0203L155.923 39.2519L163.385 29.1466C163.574 28.8062 163.74 28.2956 163.258 27.6099L154.338 18.6912C154.119 18.4724 153.516 18.3265 153.165 18.5891L142.761 26.0878L142.003 25.6355C139.114 23.9043 135.879 22.5573 131.521 21.2734L130.704 21.0351L128.783 8.53725C128.656 7.96341 128.209 7.83698 127.854 7.83698H115.261C114.799 7.83698 114.424 8.26006 114.322 8.57615L112.396 21.0838L111.516 21.2929C108.048 22.1099 104.546 23.5688 101.102 25.6355L100.343 26.0878L89.9586 18.6037C89.5208 18.2778 88.9663 18.5745 88.6891 18.7641L79.7686 27.6829C79.5497 27.9017 79.4038 28.5047 79.6665 28.8548L87.1715 39.2568L86.7192 40.0154C84.652 43.4584 83.1928 46.9598 82.3757 50.4271L82.1714 51.3024L69.8462 53.2331C69.2674 53.3595 69.1458 53.8069 69.1458 54.1619V66.7522C69.1458 67.219 69.5738 67.5886 69.8899 67.6907L81.9476 69.6214L82.1519 70.4967C82.9934 74.0807 84.4623 77.7474 86.5149 81.3898L86.938 82.1436L79.681 92.0592C79.36 92.492 79.6567 93.0415 79.8464 93.3187L88.7669 102.237C88.9858 102.456 89.5889 102.602 89.9391 102.34L99.8664 95.0743L100.62 95.4974C104.837 97.8705 108.3 99.3245 111.516 100.083L112.386 100.287L114.327 112.158C114.453 112.737 114.901 112.858 115.261 112.858H127.854C128.32 112.858 128.69 112.43 128.792 112.114L130.728 100.273L131.613 100.078C135.028 99.3197 138.676 97.783 142.46 95.5168L143.224 95.0597L153.161 102.33C153.593 102.651 154.143 102.354 154.42 102.165L163.341 93.2458C163.56 93.027 163.706 92.424 163.443 92.0738L156.176 82.1484L156.599 81.3947C158.788 77.5043 160.174 74.0467 160.957 70.521L161.157 69.6311L173.268 67.6956C173.847 67.5692 173.969 67.1218 173.969 66.7668V54.0403L173.993 53.909C174.056 53.5881 173.701 53.3157 173.453 53.2379H173.443ZM121.569 86.3306C107.221 86.3306 95.591 74.7032 95.591 60.3573C95.591 46.0115 107.221 34.3841 121.569 34.3841C135.918 34.3841 147.548 46.0115 147.548 60.3573C147.548 74.7032 135.918 86.3306 121.569 86.3306Z" fill="#BEBEBE"/>
    <path d="M75.8775 33.1685L66.7771 31.7679L66.6263 31.126C66.0329 28.6021 64.9677 26.0539 63.4696 23.5543L63.134 22.9951L68.5621 15.6422C68.7032 15.3942 68.8199 15.0246 68.4697 14.5237L61.9812 8.0365C61.8207 7.87603 61.3829 7.7739 61.13 7.96356L53.5617 13.4198L53.0121 13.0892C50.9109 11.8296 48.5567 10.8522 45.3854 9.91848L44.792 9.74342L43.3912 0.649612C43.2988 0.231394 42.9729 0.14386 42.7151 0.14386H33.5515C33.2159 0.14386 32.9435 0.450229 32.8705 0.683653L31.4697 9.78232L30.8277 9.93307C28.3033 10.5264 25.7546 11.5914 23.2545 13.0892L22.7049 13.4198L15.1463 7.97329C14.8253 7.735 14.4264 7.94897 14.2222 8.09L7.73367 14.5772C7.57316 14.7377 7.47101 15.1754 7.66071 15.4283L13.118 22.9951L12.7873 23.5446C11.2843 26.049 10.2191 28.5973 9.6306 31.1163L9.47982 31.7533L0.510714 33.1587C0.0924148 33.2511 0 33.577 0 33.8347V42.9966C0 43.337 0.311292 43.6045 0.539897 43.6774L9.31445 45.0828L9.46523 45.7199C10.0781 48.3264 11.1482 50.9914 12.6365 53.6466L12.9429 54.1912L7.66557 61.403C7.4321 61.7191 7.64612 62.1179 7.78717 62.3221L14.2757 68.8094C14.4362 68.9699 14.8739 69.072 15.1269 68.8823L22.3498 63.5962L22.8946 63.9026C25.9637 65.629 28.4832 66.6891 30.8228 67.2386L31.4551 67.3894L32.8657 76.0261C32.9581 76.4491 33.2839 76.5367 33.5417 76.5367H42.7054C43.0459 76.5367 43.3134 76.2254 43.3864 75.9969L44.792 67.3797L45.4341 67.2386C47.9195 66.6842 50.5753 65.5706 53.3234 63.9172L53.8779 63.5865L61.1057 68.8775C61.4218 69.1109 61.8207 68.8969 62.025 68.7559L68.5135 62.2687C68.674 62.1082 68.7761 61.6705 68.5864 61.4176L63.2993 54.1961L63.6058 53.6514C65.1963 50.8212 66.2031 48.307 66.7771 45.7393L66.923 45.0925L75.7364 43.6823C76.1596 43.5899 76.2471 43.2641 76.2471 43.0063V33.7472L76.2666 33.6499C76.3152 33.4165 76.0526 33.2171 75.8726 33.1587L75.8775 33.1685ZM38.1382 57.2452C27.7001 57.2452 19.2369 48.7836 19.2369 38.3476C19.2369 27.9116 27.7001 19.45 38.1382 19.45C48.5762 19.45 57.0394 27.9116 57.0394 38.3476C57.0394 48.7836 48.5762 57.2452 38.1382 57.2452Z" fill="#BEBEBE"/>
    <path d="M72.3315 161.629C105.523 161.629 132.43 134.727 132.43 101.542C132.43 68.357 105.523 41.455 72.3315 41.455C39.1398 41.455 12.2327 68.357 12.2327 101.542C12.2327 134.727 39.1398 161.629 72.3315 161.629Z" fill="#FFC88C"/>
    <path d="M72.3312 131.61C60.6772 131.61 49.0183 127.175 40.1465 118.305C39.2272 117.386 39.2272 115.893 40.1465 114.974C41.0658 114.055 42.5541 114.055 43.4734 114.974C59.3834 130.881 85.2741 130.881 101.184 114.974C102.103 114.055 103.592 114.055 104.511 114.974C105.43 115.893 105.43 117.386 104.511 118.305C95.6392 127.175 83.9803 131.61 72.3263 131.61H72.3312Z" fill="black"/>
    <path d="M62.8127 90.8048C62.2922 90.8048 61.7718 90.6054 61.373 90.2066C56.0178 84.8525 47.3064 84.8525 41.9512 90.2066C41.1584 90.9993 39.8695 90.9993 39.0718 90.2066C38.2741 89.414 38.279 88.1253 39.0718 87.3277C46.0126 80.3882 57.3116 80.3882 64.2524 87.3277C65.0452 88.1204 65.0452 89.4091 64.2524 90.2066C63.8536 90.6054 63.3331 90.8048 62.8127 90.8048Z" fill="black"/>
    <path d="M104.151 90.8048C103.631 90.8048 103.11 90.6054 102.711 90.2066C97.356 84.8525 88.6447 84.8525 83.2895 90.2066C82.4967 90.9993 81.2077 90.9993 80.41 90.2066C79.6172 89.414 79.6172 88.1253 80.41 87.3277C87.3509 80.3882 98.6498 80.3882 105.591 87.3277C106.383 88.1204 106.383 89.4091 105.591 90.2066C105.192 90.6054 104.671 90.8048 104.151 90.8048Z" fill="black"/>
</svg>

<svg width="174" height="162" fill="none" xmlns="http://www.w3.org/2000/svg"><path d="m173.443 53.238-12.51-1.926-.209-.88c-.817-3.467-2.276-6.969-4.343-10.412l-.458-.768 7.462-10.105c.189-.34.355-.851-.127-1.537l-8.92-8.919c-.219-.219-.822-.364-1.173-.102l-10.404 7.499-.758-.453c-2.889-1.73-6.124-3.078-10.482-4.362l-.817-.238-1.921-12.498c-.127-.574-.574-.7-.929-.7h-12.593c-.462 0-.837.423-.939.74l-1.926 12.507-.88.209c-3.468.817-6.97 2.276-10.414 4.343l-.759.452-10.384-7.484c-.438-.326-.993-.03-1.27.16l-8.92 8.919c-.22.219-.365.822-.103 1.172l7.505 10.402-.452.758c-2.067 3.443-3.526 6.945-4.343 10.412l-.205.875-12.325 1.931c-.579.127-.7.574-.7.929v12.59c0 .467.428.837.744.939l12.058 1.93.204.876c.841 3.584 2.31 7.25 4.363 10.893l.423.754-7.257 9.915c-.321.433-.024.983.165 1.26l8.92 8.918c.22.219.823.365 1.173.103l9.927-7.266.754.423c4.217 2.374 7.68 3.828 10.896 4.586l.87.204 1.941 11.871c.126.579.574.7.934.7h12.593c.466 0 .836-.428.938-.744l1.936-11.841.885-.195c3.415-.758 7.063-2.295 10.847-4.561l.764-.457 9.937 7.27c.432.321.982.024 1.259-.165l8.921-8.92c.219-.218.365-.821.102-1.171l-7.267-9.926.423-.753c2.189-3.89 3.575-7.348 4.358-10.874l.2-.89 12.111-1.935c.579-.127.701-.574.701-.93V54.04l.024-.131c.063-.32-.292-.593-.54-.671h-.01ZM121.569 86.33c-14.348 0-25.978-11.628-25.978-25.974s11.63-25.973 25.978-25.973c14.349 0 25.979 11.627 25.979 25.973 0 14.346-11.63 25.974-25.979 25.974Z" fill="#BEBEBE"/><path d="m75.877 33.169-9.1-1.401-.15-.642c-.594-2.524-1.66-5.072-3.157-7.572l-.336-.559 5.428-7.353c.141-.248.258-.617-.092-1.118L61.98 8.037c-.16-.161-.598-.263-.851-.073l-7.568 5.456-.55-.33c-2.101-1.26-4.455-2.238-7.627-3.172l-.593-.175-1.4-9.093c-.093-.419-.42-.506-.677-.506h-9.164c-.335 0-.608.306-.68.54L31.47 9.782l-.642.151c-2.525.593-5.073 1.658-7.573 3.156l-.55.33-7.559-5.446c-.32-.238-.72-.024-.924.117l-6.488 6.487c-.16.16-.263.598-.073.851l5.457 7.567-.33.55c-1.504 2.504-2.569 5.052-3.157 7.571l-.151.637L.51 33.16c-.418.092-.51.418-.51.676v9.162c0 .34.311.608.54.68l8.774 1.406.151.637c.613 2.606 1.683 5.271 3.171 7.927l.307.544-5.277 7.212c-.234.316-.02.715.121.92l6.489 6.486c.16.16.598.263.85.073l7.224-5.286.545.307c3.069 1.726 5.588 2.786 7.928 3.336l.632.15 1.41 8.637c.093.423.419.51.677.51h9.163c.34 0 .608-.31.681-.54l1.406-8.616.642-.141c2.486-.555 5.141-1.668 7.89-3.322l.554-.33 7.228 5.29c.316.234.715.02.919-.121l6.488-6.487c.161-.16.263-.599.073-.851L63.3 54.196l.307-.545c1.59-2.83 2.597-5.344 3.171-7.912l.146-.646 8.813-1.41c.424-.093.511-.419.511-.677v-9.259l.02-.097c.048-.233-.214-.433-.394-.491l.004.01ZM38.139 57.245c-10.438 0-18.901-8.461-18.901-18.897 0-10.436 8.463-18.898 18.901-18.898S57.04 27.912 57.04 38.348s-8.463 18.897-18.9 18.897Z" fill="#BEBEBE"/><path d="M72.332 161.629c33.191 0 60.098-26.902 60.098-60.087s-26.907-60.087-60.099-60.087c-33.191 0-60.098 26.902-60.098 60.087s26.907 60.087 60.099 60.087Z" fill="#FFC88C"/><path d="M72.331 131.61c-11.654 0-23.313-4.435-32.184-13.305a2.356 2.356 0 0 1 0-3.331 2.352 2.352 0 0 1 3.326 0c15.91 15.907 41.801 15.907 57.711 0a2.352 2.352 0 0 1 3.327 0 2.357 2.357 0 0 1 0 3.331c-8.872 8.87-20.53 13.305-32.185 13.305h.005ZM62.813 90.805c-.52 0-1.041-.2-1.44-.598-5.355-5.354-14.067-5.354-19.422 0a2.035 2.035 0 1 1-2.88-2.879c6.942-6.94 18.24-6.94 25.181 0a2.04 2.04 0 0 1-1.44 3.477ZM104.151 90.805c-.52 0-1.041-.2-1.44-.598-5.355-5.354-14.066-5.354-19.421 0a2.04 2.04 0 0 1-2.88 0 2.04 2.04 0 0 1 0-2.88c6.94-6.939 18.24-6.939 25.181 0a2.041 2.041 0 0 1 0 2.88c-.399.398-.92.598-1.44.598Z" fill="#000"/></svg>
